X:222
T:Highland Mary - Oddington
M:4/4
L:1/8
K:G
D2 | G2 AG F2 D2 | G2 AB c2 Bc | d2 Bd c2 BA | G2 FE D2 D2 |
G2 AG F2 D2 | G2 AB c2 Bc | d2 Bd c2 BA | G2 F2 G2 :||
B2 | d2 d2 d2 cB | c2 c2 c2 Bc | d2 d2 dcBA | G4 F2 D2 |
G2 AG F2D2 | G2 AB c2 Bc | d2 Bd c2 BA | G2 F2 G2 :||
